X:1
T: The Countess of Louden's Reel
C:
R:Reel
Q: 232
K:D
M:4/4
L:1/8
|:f|d2 dA FD AD|Ee ed cA Bc|d2 dA FD Ag|fd ec dD Df|
d2 dA FD AD|Ee ed cA Bc|d2 dA FD Ag|fd ec dD Dg|
fd ad fa da|ge be gb eg|fd ad fa da|fd ec dD Dg|
fd ad fa da|ge be gb eg|fd ec dB AG|FA dg fd d:|
